packages/foundations/assets/icons/functional/images/file/folder_open_16_filled.svg

<svg width="16" height="16" viewBox="0 0 16 16" fill="none" xmlns="http://www.w3.org/2000/svg">
<g clip-path="url(#clip0_2208_3405)">
<path fill-rule="evenodd" clip-rule="evenodd" d="M7.26118 3.20001C7.51885 3.20001 7.72716 3.34169 7.82007 3.4451L8.73937 4.40001H11.9994C12.8429 4.40001 13.6038 5.07518 13.5994 6.00001V7.20001C14.0727 7.20001 14.4903 7.63874 14.3834 8.15691L13.7125 11.5138C13.5712 12.2201 12.9461 12.8 12.1435 12.8H3.85521C3.13796 12.8 2.4546 12.3112 2.28629 11.5138L1.61491 8.15691C1.52209 7.69281 1.86385 7.20001 2.39937 7.20001V4.80001C2.39937 3.95652 3.06682 3.20001 3.9991 3.20001H7.26118ZM6.90417 4.80001H3.99937L3.9991 7.20001H11.9991L11.9994 6.00001H8.39937C8.21316 6.00001 7.99937 5.93639 7.82312 5.75493L6.90417 4.80001Z" fill="#1A1C1F"/>
</g>
<defs>
<clipPath id="clip0_2208_3405">
<rect width="16" height="16" fill="white"/>
</clipPath>
</defs>
</svg>

<svg xmlns="http://www.w3.org/2000/svg" width="16" height="16" fill="none"><g clip-path="url(#a)"><path fill="#1A1C1F" fill-rule="evenodd" d="M7.261 3.2c.258 0 .466.142.56.245l.918.955H12c.844 0 1.605.675 1.6 1.6v1.2c.474 0 .891.439.784.957l-.67 3.357a1.6 1.6 0 0 1-1.57 1.286H3.855c-.717 0-1.4-.489-1.569-1.286l-.671-3.357a.8.8 0 0 1 .784-.957V4.8c0-.843.668-1.6 1.6-1.6zm-.357 1.6H4v2.4h8V6H8.4a.8.8 0 0 1-.576-.245z" clip-rule="evenodd"/></g><defs><clipPath id="a"><path fill="#fff" d="M0 0h16v16H0z"/></clipPath></defs></svg>
